assets/img/braze_icons/bell-ringing-04.svg

<svg fill="none" height="24" viewBox="0 0 24 24" width="24" xmlns="http://www.w3.org/2000/svg"><g fill="#801ed7"><path clip-rule="evenodd" d="m7.10827 6.5557c-.23536-.33076-.41686-.70833-.52799-1.12309-.5003-1.86713.60774-3.78631 2.47487-4.2866 1.86715-.500299 3.78635.60774 4.28665 2.47487.1111.41477.1427.83253.1042 1.23668.6371.11378 1.2546.31098 1.8325.59175 1.5766.76606 2.7395 2.1009 3.178 3.73746.5455 2.03583 1.4343 3.34263 2.2939 4.18453l.0144.0141c.5527.5414.9844.9642 1.2803 1.2714.1479.1536.2804.2973.3824.4233.0506.0625.1083.1383.1597.2215.0383.062.135.2236.1711.4411.0198.1194.0556.3576-.0157.6296-.0714.272-.2195.4619-.2954.5562-.1237.1537-.2647.2432-.3357.2849-.0837.0493-.1677.0877-.238.117-.1405.0585-.3075.1139-.4827.1675-.3494.1067-.8424.2388-1.4637.4053l-3.1782.8516c.0176 1.7813-1.1652 3.4179-2.9655 3.9003-1.8003.4823-3.6429-.3436-4.51839-1.895l-1.24682.334c-.6211.1665-1.11439.2986-1.47022.3809-.17851.0412-.35088.0768-.50184.0963-.07551.0098-.16738.0185-.26457.0177-.08234-.0007-.24919-.0077-.43315-.0789-.11288-.0438-.33611-.1341-.53392-.334-.1978-.1999-.28584-.424-.32841-.5374-.07752-.2064-.07455-.3946-.07238-.4675.00292-.0978.01494-.1923.02753-.2717.02538-.1602.06825-.3508.11954-.5577.10262-.4141.26509-.9962.47311-1.7414l.00537-.0193c.3235-1.159.43981-2.735-.10569-4.7709-.43851-1.6365-.09883-3.37398.88354-4.82572.36008-.53212.79632-1.0117 1.29117-1.42878zm1.40386-1.64072c-.21441-.8002.26046-1.62271 1.06066-1.83712.80021-.21441 1.62271.26046 1.83711 1.06066.0572.21357.0656.42812.0317.6325-.4532.03981-.9059.11941-1.3512.23874-.44537.11933-.87712.2767-1.28951.46882-.13152-.16006-.23154-.35004-.28876-.5636zm2.82147 15.29082c.4888.4878 1.2171.709 1.9321.5174.7151-.1916 1.2353-.7473 1.4146-1.4142z" fill-rule="evenodd"/><path d="m3.82287 6.98746c.38665.39436.38039 1.0275-.01398 1.41414-.77624.76105-1.08043 1.8963-.78871 2.9435.14821.532-.16294 1.0835-.69497 1.2317-.53202.1482-1.08346-.1629-1.23167-.695-.487268-1.7491.01862-3.63714 1.31519-4.90832.39436-.38665 1.0275-.38039 1.41414.01398z"/><path d="m16.4766 3.59701c.1376-.53486.6828-.85685 1.2177-.71918 1.7584.45259 3.1406 1.83471 3.5931 3.59316.1377.53485-.1843 1.08003-.7191 1.21769-.5349.13766-1.0801-.18432-1.2177-.71918-.271-1.05276-1.1021-1.88384-2.1548-2.1548-.5349-.13766-.8569-.68284-.7192-1.21769z"/></g></svg>

<svg width="24" height="24" viewBox="0 0 24 24" fill="none" xmlns="http://www.w3.org/2000/svg">
<path fill-rule="evenodd" clip-rule="evenodd" d="M7.10827 6.5557C6.87291 6.22494 6.69141 5.84737 6.58028 5.43261C6.07998 3.56548 7.18802 1.6463 9.05515 1.14601C10.9223 0.645711 12.8415 1.75375 13.3418 3.62088C13.4529 4.03565 13.4845 4.45341 13.446 4.85756C14.0831 4.97134 14.7006 5.16854 15.2785 5.44931C16.8551 6.21537 18.018 7.55021 18.4565 9.18677C19.002 11.2226 19.8908 12.5294 20.7504 13.3713L20.7648 13.3854C21.3175 13.9268 21.7492 14.3496 22.0451 14.6568C22.193 14.8104 22.3255 14.9541 22.4275 15.0801C22.4781 15.1426 22.5358 15.2184 22.5872 15.3016C22.6255 15.3636 22.7222 15.5252 22.7583 15.7427C22.7781 15.8621 22.8139 16.1003 22.7426 16.3723C22.6712 16.6443 22.5231 16.8342 22.4472 16.9285C22.3235 17.0822 22.1825 17.1717 22.1115 17.2134C22.0278 17.2627 21.9438 17.3011 21.8735 17.3304C21.733 17.3889 21.566 17.4443 21.3908 17.4979C21.0414 17.6046 20.5484 17.7367 19.9271 17.9032L16.7489 18.7548C16.7665 20.5361 15.5837 22.1727 13.7834 22.6551C11.9831 23.1374 10.1405 22.3115 9.26501 20.7601L8.01819 21.0941C7.39709 21.2606 6.9038 21.3927 6.54797 21.475C6.36946 21.5162 6.19709 21.5518 6.04613 21.5713C5.97062 21.5811 5.87875 21.5898 5.78156 21.589C5.69922 21.5883 5.53237 21.5813 5.34841 21.5101C5.23553 21.4663 5.0123 21.376 4.81449 21.1761C4.61669 20.9762 4.52865 20.7521 4.48608 20.6387C4.40856 20.4323 4.41153 20.2441 4.4137 20.1712C4.41662 20.0734 4.42864 19.9789 4.44123 19.8995C4.46661 19.7393 4.50948 19.5487 4.56077 19.3418C4.66339 18.9277 4.82586 18.3456 5.03388 17.6004L5.03925 17.5811C5.36275 16.4221 5.47906 14.8461 4.93356 12.8102C4.49505 11.1737 4.83473 9.43622 5.8171 7.98448C6.17718 7.45236 6.61342 6.97278 7.10827 6.5557ZM8.51213 4.91498C8.29772 4.11478 8.77259 3.29227 9.57279 3.07786C10.373 2.86345 11.1955 3.33832 11.4099 4.13852C11.4671 4.35209 11.4755 4.56664 11.4416 4.77102C10.9884 4.81083 10.5357 4.89043 10.0904 5.00976C9.64503 5.12909 9.21328 5.28646 8.80089 5.47858C8.66937 5.31852 8.56935 5.12854 8.51213 4.91498ZM11.3336 20.2058C11.8224 20.6936 12.5507 20.9148 13.2657 20.7232C13.9808 20.5316 14.501 19.9759 14.6803 19.309L11.3336 20.2058Z" fill="#801ED7"/>
<path d="M3.82287 6.98746C4.20952 7.38182 4.20326 8.01496 3.80889 8.4016C3.03265 9.16265 2.72846 10.2979 3.02018 11.3451C3.16839 11.8771 2.85724 12.4286 2.32521 12.5768C1.79319 12.725 1.24175 12.4139 1.09354 11.8818C0.606272 10.1327 1.11216 8.24466 2.40873 6.97348C2.80309 6.58683 3.43623 6.59309 3.82287 6.98746Z" fill="#801ED7"/>
<path d="M16.4766 3.59701C16.6142 3.06215 17.1594 2.74016 17.6943 2.87783C19.4527 3.33042 20.8349 4.71254 21.2874 6.47099C21.4251 7.00584 21.1031 7.55102 20.5683 7.68868C20.0334 7.82634 19.4882 7.50436 19.3506 6.9695C19.0796 5.91674 18.2485 5.08566 17.1958 4.8147C16.6609 4.67704 16.3389 4.13186 16.4766 3.59701Z" fill="#801ED7"/>
</svg>
